public/svgs/icons/image.svg

<svg fill="none" height="81" viewBox="0 0 83 81" width="83" xmlns="http://www.w3.org/2000/svg"><path d="m35.3966 34.1091c.9979 0 1.8068-.8089 1.8068-1.8067 0-.9979-.8089-1.8068-1.8068-1.8068-.9977 0-1.8068.8089-1.8068 1.8068 0 .9978.8091 1.8067 1.8068 1.8067z" fill="#ed6a5e"/><path d="m39.5704 43.0258c-.0056.2574-.1077.5033-.286.6889-.1827.1826-.4306.2852-.6889.2852-.2584 0-.5061-.1026-.6889-.2852l-5.2773-5.2643-5.1993 5.2643c-.1848.1722-.4292.2661-.6817.2615-.2526-.0044-.4936-.1067-.6722-.2853s-.281-.4195-.2854-.6721.0893-.4971.2615-.6819l6.6421-6.6421 6.5901 6.6421c.1783.1858.2804.4317.286.6889z" fill="#ed6a5e"/><path d="m49.9688 40.4262c-.0056.2573-.1076.5033-.286.6889-.1827.1826-.4306.2852-.6889.2852-.2584 0-.5061-.1026-.6889-.2852l-5.2773-5.2643-5.1992 5.2643c-.1849.1722-.4293.2661-.6818.2615-.2526-.0044-.4935-.1067-.6721-.2853s-.2811-.4196-.2855-.6721c-.0044-.2526.0893-.4971.2615-.6819l6.6421-6.6421 6.5901 6.6421c.1784.1857.2804.4316.286.6889z" fill="#ed6a5e"/><path d="m62.0711 11.7251h-48.041c-.8008 0-1.45.6492-1.45 1.45v57.1612c0 .8008.6492 1.45 1.45 1.45h48.041c.8008 0 1.45-.6492 1.45-1.45v-57.1612c0-.8008-.6492-1.45-1.45-1.45z" stroke="#bad8db" stroke-width="1.5"/><path d="m56.3711 17.4253h-36.6408c-.8008 0-1.45.6492-1.45 1.45v36.6408c0 .8008.6492 1.45 1.45 1.45h36.6408c.8008 0 1.45-.6492 1.45-1.45v-36.6408c0-.8008-.6492-1.45-1.45-1.45z" stroke="#bad8db" stroke-width="1.5"/><path clip-rule="evenodd" d="m66.2828 64.9229-2.0113-.3653v-1.5245l2.2794.4139c.3803.0691.7447-.1832.8138-.5636l6.5473-36.0511c.0691-.3804-.1832-.7447-.5636-.8138l-9.0769-1.6485v-1.5245l9.3449 1.6971c1.1955.2171 1.9886 1.3623 1.7715 2.5577l-6.5474 36.0511c-.2171 1.1955-1.3622 1.9886-2.5577 1.7715z" fill="#bad8db" fill-rule="evenodd"/><path clip-rule="evenodd" d="m69.2424 80.5231-43.9768-7.9868h8.3944l35.8505 6.511c.3804.069.7447-.1833.8138-.5637l10.2142-56.2412c.069-.3804-.1833-.7447-.5637-.8138l-15.7038-2.852v-1.5246l15.9718 2.9007c1.1955.2171 1.9886 1.3623 1.7715 2.5577l-10.2141 56.2412c-.2172 1.1955-1.3623 1.9886-2.5578 1.7715z" fill="#bad8db" fill-rule="evenodd"/><g fill="#ed6a5e"><path d="m3.13529 27.6456c.47221 0 .85501-.3828.85501-.855v-24.51053c0-.47221-.3828-.85502-.85501-.85502-.47222 0-.85502.38281-.85502.85502v24.51053c0 .4722.3828.855.85502.855z"/><path d="m2.28027 2.28006c0 .47222.38281.85502.85502.85502h24.51051c.4722 0 .855-.3828.855-.85502 0-.47221-.3828-.85501-.855-.85501h-24.51051c-.47221 0-.85502.3828-.85502.85501z"/><path d="m1.13525 26.8486 3.94915-.0097-1.9662 3.4249z"/><path d="m30.2108 2.28001-3.416 1.98164-.0082-3.94915z"/></g></svg>

<svg width="83" height="81" viewBox="0 0 83 81" fill="none" xmlns="http://www.w3.org/2000/svg">
<path d="M35.3966 34.1091C36.3945 34.1091 37.2034 33.3002 37.2034 32.3024C37.2034 31.3045 36.3945 30.4956 35.3966 30.4956C34.3989 30.4956 33.5898 31.3045 33.5898 32.3024C33.5898 33.3002 34.3989 34.1091 35.3966 34.1091Z" fill="#ED6A5E"/>
<path d="M39.5704 43.0258C39.5648 43.2832 39.4627 43.5291 39.2844 43.7147C39.1017 43.8973 38.8538 43.9999 38.5955 43.9999C38.3371 43.9999 38.0894 43.8973 37.9066 43.7147L32.6293 38.4504L27.43 43.7147C27.2452 43.8869 27.0008 43.9808 26.7483 43.9762C26.4957 43.9718 26.2547 43.8695 26.0761 43.6909C25.8975 43.5123 25.7951 43.2714 25.7907 43.0188C25.7863 42.7662 25.88 42.5217 26.0522 42.3369L32.6943 35.6948L39.2844 42.3369C39.4627 42.5227 39.5648 42.7686 39.5704 43.0258Z" fill="#ED6A5E"/>
<path d="M49.9688 40.4262C49.9632 40.6835 49.8612 40.9295 49.6828 41.1151C49.5001 41.2977 49.2522 41.4003 48.9939 41.4003C48.7355 41.4003 48.4878 41.2977 48.305 41.1151L43.0277 35.8508L37.8285 41.1151C37.6436 41.2873 37.3992 41.3812 37.1467 41.3766C36.8941 41.3722 36.6532 41.2699 36.4746 41.0913C36.296 40.9127 36.1935 40.6717 36.1891 40.4192C36.1847 40.1666 36.2784 39.9221 36.4506 39.7373L43.0927 33.0952L49.6828 39.7373C49.8612 39.923 49.9632 40.1689 49.9688 40.4262Z" fill="#ED6A5E"/>
<path d="M62.0711 11.7251H14.0301C13.2293 11.7251 12.5801 12.3743 12.5801 13.1751V70.3363C12.5801 71.1371 13.2293 71.7863 14.0301 71.7863H62.0711C62.8719 71.7863 63.5211 71.1371 63.5211 70.3363V13.1751C63.5211 12.3743 62.8719 11.7251 62.0711 11.7251Z" stroke="#BAD8DB" stroke-width="1.5"/>
<path d="M56.3711 17.4253H19.7303C18.9295 17.4253 18.2803 18.0745 18.2803 18.8753V55.5161C18.2803 56.3169 18.9295 56.9661 19.7303 56.9661H56.3711C57.1719 56.9661 57.8211 56.3169 57.8211 55.5161V18.8753C57.8211 18.0745 57.1719 17.4253 56.3711 17.4253Z" stroke="#BAD8DB" stroke-width="1.5"/>
<path fill-rule="evenodd" clip-rule="evenodd" d="M66.2828 64.9229L64.2715 64.5576V63.0331L66.5509 63.447C66.9312 63.5161 67.2956 63.2638 67.3647 62.8834L73.912 26.8323C73.9811 26.4519 73.7288 26.0876 73.3484 26.0185L64.2715 24.37V22.8455L73.6164 24.5426C74.8119 24.7597 75.605 25.9049 75.3879 27.1003L68.8405 63.1514C68.6234 64.3469 67.4783 65.14 66.2828 64.9229Z" fill="#BAD8DB"/>
<path fill-rule="evenodd" clip-rule="evenodd" d="M69.2424 80.5231L25.2656 72.5363H33.66L69.5105 79.0473C69.8909 79.1163 70.2552 78.864 70.3243 78.4836L80.5385 22.2424C80.6075 21.862 80.3552 21.4977 79.9748 21.4286L64.271 18.5766V17.052L80.2428 19.9527C81.4383 20.1698 82.2314 21.315 82.0143 22.5104L71.8002 78.7516C71.583 79.9471 70.4379 80.7402 69.2424 80.5231Z" fill="#BAD8DB"/>
<path d="M3.13529 27.6456C3.6075 27.6456 3.9903 27.2628 3.9903 26.7906V2.28007C3.9903 1.80786 3.6075 1.42505 3.13529 1.42505C2.66307 1.42505 2.28027 1.80786 2.28027 2.28007V26.7906C2.28027 27.2628 2.66307 27.6456 3.13529 27.6456Z" fill="#ED6A5E"/>
<path d="M2.28027 2.28006C2.28027 2.75228 2.66308 3.13508 3.13529 3.13508H27.6458C28.118 3.13508 28.5008 2.75228 28.5008 2.28006C28.5008 1.80785 28.118 1.42505 27.6458 1.42505H3.13529C2.66308 1.42505 2.28027 1.80785 2.28027 2.28006Z" fill="#ED6A5E"/>
<path d="M1.13525 26.8486L5.0844 26.8389L3.1182 30.2638L1.13525 26.8486Z" fill="#ED6A5E"/>
<path d="M30.2108 2.28001L26.7948 4.26165L26.7866 0.3125L30.2108 2.28001Z" fill="#ED6A5E"/>
</svg>
